X:335
T: Shier yue
N: C1836
O: China,Ningxia Haiyuan
S: I, 169, 2)]
N: Han
R: Xiaodiao]
M: 2/4
L: 1/16
K: A
e2ecBcA2 | B8 | c2B2A2B2 | A3FE4 |
A2A2B2B2 | F2A2EFD2 | B,8 |
F2FAD2E2 | FAD2E4 | A2A2B2B2 | F2A2FED2 | B,8 |
F3AD2E2 | FAD2E4 | B3AB2B2 | F2A2FED2 | B,8

@@@ Tune index: 6890
